images/icons/browser-windows.svg

<svg xmlns="http://www.w3.org/2000/svg" viewBox="0 0 96.2 100"><path fill="#010101" d="M73.1 30.8H3.8c-2.3 0-3.8 1.5-3.8 3.8V100h76.9V34.6c0-2.3-1.5-3.8-3.8-3.8zm-46.2 7.7h3.8v3.8h-3.8v-3.8zm-7.7 0H23v3.8h-3.8v-3.8zm-7.7 0h3.8v3.8h-3.8v-3.8zm57.7 53.8H7.7V50h61.5v42.3zM92.3 0H23.1c-2.3 0-3.8 1.5-3.8 3.8v23.1H27v-7.7h61.5v42.3h-7.7v7.7h15.4V3.8c0-2.3-1.6-3.8-3.9-3.8zM34.6 11.5h-3.8V7.7h3.8v3.8zm7.7 0h-3.8V7.7h3.8v3.8zm7.7 0h-3.8V7.7H50v3.8z"/></svg>

<?xml version="1.0" encoding="utf-8"?>
<!-- Generator: Adobe Illustrator 18.0.0, SVG Export Plug-In . SVG Version: 6.00 Build 0)  -->
<!DOCTYPE svg PUBLIC "-//W3C//DTD SVG 1.1//EN" "http://www.w3.org/Graphics/SVG/1.1/DTD/svg11.dtd">
<svg version="1.1" id="Layer_1" xmlns="http://www.w3.org/2000/svg" xmlns:xlink="http://www.w3.org/1999/xlink" x="0px" y="0px"
	 viewBox="0 0 96.2 100" enable-background="new 0 0 96.2 100" xml:space="preserve">
<path fill="#010101" d="M73.1,30.8H3.8c-2.3,0-3.8,1.5-3.8,3.8V100h76.9V34.6C76.9,32.3,75.4,30.8,73.1,30.8z M26.9,38.5h3.8v3.8
	h-3.8V38.5z M19.2,38.5h3.8v3.8h-3.8V38.5z M11.5,38.5h3.8v3.8h-3.8V38.5z M69.2,92.3H7.7V50h61.5V92.3z M92.3,0H23.1
	c-2.3,0-3.8,1.5-3.8,3.8v23.1h7.7v-7.7h61.5v42.3h-7.7v7.7h15.4V3.8C96.2,1.5,94.6,0,92.3,0z M34.6,11.5h-3.8V7.7h3.8V11.5z
	 M42.3,11.5h-3.8V7.7h3.8V11.5z M50,11.5h-3.8V7.7H50V11.5z"/>
</svg>
